X:343
T:Sussex Bonny Breastknot
R:polka 32 rant
M:4/4
L:1/8
K:G
GA|:B2G2G2AB|cBAG F2D2|G2BAG2BA|G2B2d3c|
|B2G2G2AB|cBAG F2D2|G2B2A2c2|1B2G2G2 GA:|2 B2G2G2Bc|
|:d3ed3e|dcBA G4|A2B2 cBcd |e2A2A2Bc|
|d3ed3e|dcBA G4|A4 D2EF|1G4 G2 Bc:|2 G4 G2 GA|

